assets/img/servicios/fondo.svg

<svg xmlns="http://www.w3.org/2000/svg" xmlns:xlink="http://www.w3.org/1999/xlink" viewBox="0 0 841.9 595.3"><path fill="#382F39" d="M0 0h841.9v595.3H0z"/><defs><path id="a" d="M0 0h841.9v595.3H0z"/></defs><clipPath id="b"><use xlink:href="#a" overflow="visible"/></clipPath><path clip-path="url(#b)" fill="none" stroke="#D19A2A" stroke-width=".5" stroke-miterlimit="10" d="M345.9 85.3c.4 0 1.2-.6 3.5-2.8l1.5.3 1.3 3.2c-7.4 8.2-10.4 10.4-14.2 10.4-2.3 0-3.4-1.1-3.4-3.2 0-.9.3-2.6 1.7-8.2h-.7a32.6 32.6 0 01-8.9 11.4c-6.4 0-10.1-3.9-10.1-10.5 0-10.6 8.8-21.9 17-21.9l4.8 1.3.3-1.3 1.3-.8 9 .8.5 1.5s-2.5 11-4 19.6l.4.2zm-9.3-12.5a10.3 10.3 0 00-5-1.7c-1.3 0-2.8 5.7-2.8 10.6 0 2.6.4 4.4.9 4.4 1.6 0 5.1-6.9 6.9-13.3zm22.8-44.4c0-1.5-.7-2.2-2.2-2.2h-1.9l.8-5.5c6.1 0 15.2-.8 15.2-.8l1.1 1.3s-3.3 16-5.4 28.2h.7c3.6-6.4 6-9.5 8.7-11.4 6.8 0 10.7 4.1 10.7 11.1 0 11.4-8.6 21.4-18.5 21.4-8.9 0-14-4-14-4l-.9-1.7c0-.1 5.7-34.3 5.7-36.4zm7.9 32.2s2 1.7 3.8 1.7c2.1 0 3.8-4.6 3.8-10.5 0-2.6-.3-4.6-.9-4.6-1.4.1-5 7.3-6.7 13.4z"/><path clip-path="url(#b)" fill="#D19A2A" d="M368.9 97.6c0 3.4 1.1 5.2 3.2 5.2 1.7 0 3.6-1.7 5-5l1.4.2 3.5 3.9c-2.1 5.6-8.5 10.3-14 10.3-6.6 0-10.9-4.7-10.9-12 0-11.7 8.5-21.2 18.9-21.2 2.7 0 5.5.6 7.3 1.6l.3 1.2-3.4 8.7-2.9.1c-1.1-2.4-2.3-3.5-4-3.5-2.6 0-4.4 4.4-4.4 10.5"/><path clip-path="url(#b)" fill="none" stroke="#D19A2A" stroke-linecap="round" stroke-miterlimit="10" stroke-dasharray="0,6" d="M631.6 460.5l-44.2 29.4"/><path clip-path="url(#b)" fill="none" stroke="#D19A2A" stroke-width=".5" stroke-miterlimit="10" d="M671.5 47.8h48.9v49.6h-48.9z"/><defs><path id="c" d="M696.1 23.2H745v49.6h-48.9z"/></defs><clipPath id="d"><use xlink:href="#c" overflow="visible"/></clipPath><path clip-path="url(#d)" fill="none" stroke="#D19A2A" stroke-width=".5" stroke-miterlimit="10" d="M681 76.9l11.2-68.8m-9 69.1l11.2-68.8m-9 69.2l11.1-68.8m-8.9 69.1l11.1-68.7m-8.9 69.1l11.1-68.8M692 78.6l11.1-68.7M694.2 79l11.1-68.8m-8.9 69.1l11.1-68.7m-8.9 69.1l11.1-68.8m-9 69.2l11.2-68.8m-9 69.1l11.2-68.8m-9 69.2L716.2 12m-8.9 69.1l11.1-68.8m-8.9 69.2l11.1-68.8m-8.9 69.1L722.8 13m-8.9 69.2L725 13.4m-8.9 69.1l11.1-68.7m-8.9 69.1l11.1-68.8m-9 69.1l11.2-68.7m-9 69.1l11.2-68.8m-9 69.1l11.1-68.7M727 84.3l11.1-68.8m-8.9 69.2l11.1-68.8M731.4 85l11.1-68.8m-8.9 69.2l11.1-68.8m-8.9 69.1l11.1-68.8M738 86.1l11.1-68.8m-9 69.1l11.2-68.8m-9 69.2L753.5 18m-9 69.1l11.1-68.7m-8.9 69.1l11.1-68.8m-8.9 69.1L760 19.1"/><defs><path id="e" d="M0 0h841.9v595.3H0z"/></defs><clipPath id="f"><use xlink:href="#e" overflow="visible"/></clipPath><path clip-path="url(#f)" fill="none" stroke="#D19A2A" stroke-width=".5" stroke-miterlimit="10" d="M733.5 550.3l35.6-95.9 35.6 95.9m0 0c0 5.5-15.9 9.9-35.6 9.9-19.7 0-35.6-4.5-35.6-9.9"/><path clip-path="url(#f)" fill="none" stroke="#D19A2A" stroke-linecap="round" stroke-miterlimit="10" stroke-dasharray="0,6" d="M733.5 550.3c0-5.5 15.9-9.9 35.6-9.9 19.7 0 35.6 4.5 35.6 9.9"/><defs><path id="g" d="M442.3 560.4h40.1v-17.1c-21.5-1.9-37.7-20.1-40.1-29.3v46.4z"/></defs><clipPath id="h"><use xlink:href="#g" overflow="visible"/></clipPath><path clip-path="url(#h)" fill="none" stroke="#D19A2A" stroke-width=".5" stroke-miterlimit="10" d="M430 563.7l9.1-56.4m-7.3 56.7l9.1-56.4m-7.3 56.7l9.1-56.4m-7.4 56.7l9.2-56.4m-7.4 56.7l9.2-56.4m-7.4 56.7l9.2-56.4m-7.4 56.7l9.2-56.4m-7.4 56.7l9.1-56.4m-7.3 56.7l9.1-56.4m-7.3 56.6l9.1-56.3m-7.3 56.6l9.1-56.4m-7.3 56.7l9.1-56.4m-7.3 56.7l9.1-56.4m-7.3 56.7l9.1-56.4m-7.3 56.7l9.1-56.4m-7.3 56.7l9.1-56.4m-7.3 56.7l9.1-56.4m-7.3 56.7l9.1-56.4m-7.3 56.7l9.1-56.4m-7.3 56.7l9.1-56.4m-7.3 56.6l9.1-56.3m-7.4 56.6l9.2-56.4m-7.4 56.7l9.2-56.4m-7.4 56.7l9.2-56.4m-7.4 56.7l9.2-56.4m-7.4 56.7l9.1-56.4m-7.3 56.7l9.1-56.4m-7.3 56.7l9.1-56.4m-7.3 56.7l9.1-56.4m-7.3 56.7l9.1-56.4m-7.3 56.6l9.1-56.3m-7.3 56.6l9.1-56.4"/><defs><path id="i" d="M0 0h841.9v595.3H0z"/></defs><clipPath id="j"><use xlink:href="#i" overflow="visible"/></clipPath><path clip-path="url(#j)" fill="none" stroke="#D19A2A" stroke-width=".5" stroke-miterlimit="10" d="M520.3 560.6h-78v-78.1m-6.4 7.4a54.3 54.3 0 0092.7 38.4"/><circle clip-path="url(#j)" fill="none" stroke="#D19A2A" stroke-width=".5" stroke-miterlimit="10" cx="591.3" cy="486.2" r="13.9"/><path clip-path="url(#j)" fill="none" stroke="#D19A2A" stroke-width=".5" stroke-miterlimit="10" d="M811.1 141.1l-3.7 16.7-27 .1-26.9.1-1-1.6 4.3-16.6 27.1.1c9.6 0 26.5-.7 26.5-.7l.7 1.9zm3-24.6l-3.6 16.7-27.1.1-26.9.1-.9-1.6 4.2-16.6 27.3.1c9.5 0 26.4-.7 26.4-.7l.6 1.9z"/><path clip-path="url(#j)" fill="#D19A2A" d="M801.1 354.8c0-7 3.8-10.8 9-10.8 3.7 0 6 2.3 6 6.9 0 7.1-3.8 10.9-8.9 10.9-3.8-.1-6.1-2.4-6.1-7m29.2-9.1l-13 20-9.1 14.3-4.5-1.7-.3-.8s5.3-7.7 9.3-14l12.8-20.5 4.2 1.5.6 1.2zm-18.2 7c0-1.4-1.1-2-3.5-2-2.6 0-3.6.7-3.6 2.3 0 1.3 1.1 2 3.5 2 2.6.1 3.6-.7 3.6-2.3m8.1 16.6c0-7 3.8-10.8 9-10.8 3.8 0 6 2.3 6 6.9 0 7.1-3.8 10.9-8.9 10.9-3.7-.1-6.1-2.4-6.1-7m11-2c0-1.4-1.1-2-3.5-2-2.6 0-3.6.7-3.6 2.3 0 1.3 1.1 2 3.5 2 2.7 0 3.6-.8 3.6-2.3"/><path clip-path="url(#j)" fill="none" stroke="#D19A2A" stroke-width=".5" stroke-miterlimit="10" d="M182.2 174.1l3 6c-.5 5.7-28.5 30.7-34.2 30.7-23.2 0-32.2-10.2-29.5-32.7l7.2-57.2c1-8.7-.3-11-6-11-6 0-7 1-8.5 9.2l-10 77.7c-1.5 12-2.5 23.7-2.5 23.7l-3.3 3.7-42.2 7-2-4.2c1.8-4 16-96.6 16-107.1 0-5.2-1.2-6.7-4-6.7-6.2 0-18.2 8.2-18.2 8.2l-2.5.3-6.7-17.2.7-2.2L64 83.6l4-1.7c27.5 0 68.7 2.5 82.9 2.5 20.7 0 50.9-2.5 50.9-2.5l1.2 1.7-6.7 24-2 1.7c-15.7 0-18.7 2-22 13.7-1.5 5.7-6.2 31.2-6.2 39.5.1 9.6 3.9 11.6 16.1 11.6z"/><path clip-path="url(#j)" fill="none" stroke="#D19A2A" stroke-linecap="round" stroke-miterlimit="10" stroke-dasharray="0,6" d="M191.1 145.1l117.3-49.4"/><path clip-path="url(#j)" fill="none" stroke="#D19A2A" stroke-width=".5" stroke-miterlimit="10" d="M712.7 402.7l1 2.2-3.3 13-44.6.1-1-2.3 2.8-12.9h26.3l18.8-.1zm5.7-41.9l-2.3 18.8-22.2 9.5c-9.6 4.1-18.7 8.6-18.7 8.6l-2.1-1.3-2.6-12.9s11.4-4.4 20.6-8.3l10.8-4.8.1-1-10.9-6-16.1-7.9-.9-2.6 8.2-11.3 15.5 7.7 3.3 1.6c5.4 2.7 10.4 5.4 16.5 8.1l.8 1.8zm-5.7 41.9v-.1.1zM163.5 588.6l-122.7-1.8-24.5 3-8-20.1L75 496.8l-41.9-87.6 6.8-13h13.9c26.8 0 53.4.3 80.2.3l52.2-3.2 3 3.2c-2.7 25.1-5.6 65.2-5.6 65.2l-36 5c2.1-23-3.2-32.5-21.5-35.7l-25.7-4.1 27.2 58.7-1.5 12.7-54.6 59.3 44.3-6.5c17.1-2.1 25.4-12.4 31-36.9l37.8-2.7S174 554.6 170.4 582l-6.9 6.6z"/><path clip-path="url(#j)" fill="#D19A2A" d="M40.2 287.4c1.5-2.5 4.2-6.3 8.6-6.3s6.7 4 6.7 8.2c0 7.1-5 12.2-10.1 12.2-4.2 0-6.3-2.9-7.7-6.4-1.4 2.5-4 6.4-8.5 6.4-4.4 0-6.8-4-6.8-8.2 0-7.1 5.1-12.2 10.2-12.2 3.8 0 6.1 2.8 7.6 6.3m-3.3 5.6c-1.4-4-2.8-7.9-6.3-7.9-2.7 0-5.4 2.6-5.4 6.6 0 3.1 1.8 5.4 5.2 5.4 3.4.1 5.4-2.3 6.5-4.1m4-3.5c1.4 4.2 2.9 8 6.3 8 2.7 0 5.4-2.6 5.4-6.6 0-3-1.8-5.4-5.3-5.4-3.3 0-5.3 2.3-6.4 4m585.2 220.8c0-5.3 3.4-8.7 8.4-8.7 3.9 0 6 2.2 6 5.9 0 5.2-3.4 8.6-8.4 8.6-3.9.1-6-2-6-5.8m2.8-22.1l.4-1.1 7.2-3.4c2.6-1.3 3.9-2.9 3.9-4.5 0-3.2-3.7-5.1-10.8-5.4l-.9-1.3 4-8.6 1.3-.7c11.6.3 19.7 5.6 19.7 12.5 0 5.1-3 8.7-13.4 15l-.2.4-.1 4.9-.7 1-8.8 1.5-1-.6-.6-9.7z"/></svg>

<svg xmlns="http://www.w3.org/2000/svg" xmlns:xlink="http://www.w3.org/1999/xlink" viewBox="0 0 841.9 595.3"><path fill="#382F39" d="M0 0h841.9v595.3H0z"/><defs><path id="a" d="M0 0h841.9v595.3H0z"/></defs><clipPath id="b"><use xlink:href="#a" overflow="visible"/></clipPath><path clip-path="url(#b)" fill="none" stroke="#D19A2A" stroke-width=".5" stroke-miterlimit="10" d="M345.9 85.3c.4 0 1.2-.6 3.5-2.8l1.5.3 1.3 3.2c-7.4 8.2-10.4 10.4-14.2 10.4-2.3 0-3.4-1.1-3.4-3.2 0-.9.3-2.6 1.7-8.2h-.7a32.6 32.6 0 01-8.9 11.4c-6.4 0-10.1-3.9-10.1-10.5 0-10.6 8.8-21.9 17-21.9l4.8 1.3.3-1.3 1.3-.8 9 .8.5 1.5s-2.5 11-4 19.6l.4.2zm-9.3-12.5a10.3 10.3 0 00-5-1.7c-1.3 0-2.8 5.7-2.8 10.6 0 2.6.4 4.4.9 4.4 1.6 0 5.1-6.9 6.9-13.3zM359.4 28.4c0-1.5-.7-2.2-2.2-2.2h-1.9l.8-5.5c6.1 0 15.2-.8 15.2-.8l1.1 1.3s-3.3 16-5.4 28.2h.7c3.6-6.4 6-9.5 8.7-11.4 6.8 0 10.7 4.1 10.7 11.1 0 11.4-8.6 21.4-18.5 21.4-8.9 0-14-4-14-4l-.9-1.7c0-.1 5.7-34.3 5.7-36.4zm7.9 32.2s2 1.7 3.8 1.7c2.1 0 3.8-4.6 3.8-10.5 0-2.6-.3-4.6-.9-4.6-1.4.1-5 7.3-6.7 13.4z"/><path clip-path="url(#b)" fill="#D19A2A" d="M368.9 97.6c0 3.4 1.1 5.2 3.2 5.2 1.7 0 3.6-1.7 5-5l1.4.2 3.5 3.9c-2.1 5.6-8.5 10.3-14 10.3-6.6 0-10.9-4.7-10.9-12 0-11.7 8.5-21.2 18.9-21.2 2.7 0 5.5.6 7.3 1.6l.3 1.2-3.4 8.7-2.9.1c-1.1-2.4-2.3-3.5-4-3.5-2.6 0-4.4 4.4-4.4 10.5"/><path clip-path="url(#b)" fill="none" stroke="#D19A2A" stroke-linecap="round" stroke-miterlimit="10" stroke-dasharray="0,6" d="M631.6 460.5l-44.2 29.4"/><path clip-path="url(#b)" fill="none" stroke="#D19A2A" stroke-width=".5" stroke-miterlimit="10" d="M671.5 47.8h48.9v49.6h-48.9z"/><g><defs><path id="c" d="M696.1 23.2H745v49.6h-48.9z"/></defs><clipPath id="d"><use xlink:href="#c" overflow="visible"/></clipPath><path clip-path="url(#d)" fill="none" stroke="#D19A2A" stroke-width=".5" stroke-miterlimit="10" d="M681 76.9l11.2-68.8M683.2 77.2l11.2-68.8M685.4 77.6l11.1-68.8M687.6 77.9l11.1-68.7M689.8 78.3l11.1-68.8M692 78.6l11.1-68.7M694.2 79l11.1-68.8M696.4 79.3l11.1-68.7M698.6 79.7l11.1-68.8M700.7 80.1l11.2-68.8M702.9 80.4l11.2-68.8M705.1 80.8L716.2 12M707.3 81.1l11.1-68.8M709.5 81.5l11.1-68.8M711.7 81.8L722.8 13M713.9 82.2L725 13.4M716.1 82.5l11.1-68.7M718.3 82.9l11.1-68.8M720.4 83.2l11.2-68.7M722.6 83.6l11.2-68.8M724.8 83.9l11.1-68.7M727 84.3l11.1-68.8M729.2 84.7l11.1-68.8M731.4 85l11.1-68.8M733.6 85.4l11.1-68.8M735.8 85.7l11.1-68.8M738 86.1l11.1-68.8M740.1 86.4l11.2-68.8M742.3 86.8L753.5 18M744.5 87.1l11.1-68.7M746.7 87.5l11.1-68.8M748.9 87.8L760 19.1"/></g><g><defs><path id="e" d="M0 0h841.9v595.3H0z"/></defs><clipPath id="f"><use xlink:href="#e" overflow="visible"/></clipPath><path clip-path="url(#f)" fill="none" stroke="#D19A2A" stroke-width=".5" stroke-miterlimit="10" d="M733.5 550.3l35.6-95.9 35.6 95.9M804.7 550.3c0 5.5-15.9 9.9-35.6 9.9-19.7 0-35.6-4.5-35.6-9.9"/><path clip-path="url(#f)" fill="none" stroke="#D19A2A" stroke-linecap="round" stroke-miterlimit="10" stroke-dasharray="0,6" d="M733.5 550.3c0-5.5 15.9-9.9 35.6-9.9 19.7 0 35.6 4.5 35.6 9.9"/></g><g><defs><path id="g" d="M442.3 560.4h40.1v-17.1c-21.5-1.9-37.7-20.1-40.1-29.3v46.4z"/></defs><clipPath id="h"><use xlink:href="#g" overflow="visible"/></clipPath><path clip-path="url(#h)" fill="none" stroke="#D19A2A" stroke-width=".5" stroke-miterlimit="10" d="M430 563.7l9.1-56.4M431.8 564l9.1-56.4M433.6 564.3l9.1-56.4M435.3 564.6l9.2-56.4M437.1 564.9l9.2-56.4M438.9 565.2l9.2-56.4M440.7 565.5l9.2-56.4M442.5 565.8l9.1-56.4M444.3 566.1l9.1-56.4M446.1 566.3l9.1-56.3M447.9 566.6l9.1-56.4M449.7 566.9l9.1-56.4M451.5 567.2l9.1-56.4M453.3 567.5l9.1-56.4M455.1 567.8l9.1-56.4M456.9 568.1l9.1-56.4M458.7 568.4l9.1-56.4M460.5 568.7l9.1-56.4M462.3 569l9.1-56.4M464.1 569.3l9.1-56.4M465.9 569.5l9.1-56.3M467.6 569.8l9.2-56.4M469.4 570.1l9.2-56.4M471.2 570.4l9.2-56.4M473 570.7l9.2-56.4M474.8 571l9.1-56.4M476.6 571.3l9.1-56.4M478.4 571.6l9.1-56.4M480.2 571.9l9.1-56.4M482 572.2l9.1-56.4M483.8 572.4l9.1-56.3M485.6 572.7l9.1-56.4"/></g><g><defs><path id="i" d="M0 0h841.9v595.3H0z"/></defs><clipPath id="j"><use xlink:href="#i" overflow="visible"/></clipPath><path clip-path="url(#j)" fill="none" stroke="#D19A2A" stroke-width=".5" stroke-miterlimit="10" d="M520.3 560.6h-78v-78.1M435.9 489.9a54.3 54.3 0 0092.7 38.4"/><circle clip-path="url(#j)" fill="none" stroke="#D19A2A" stroke-width=".5" stroke-miterlimit="10" cx="591.3" cy="486.2" r="13.9"/><path clip-path="url(#j)" fill="none" stroke="#D19A2A" stroke-width=".5" stroke-miterlimit="10" d="M811.1 141.1l-3.7 16.7-27 .1-26.9.1-1-1.6 4.3-16.6 27.1.1c9.6 0 26.5-.7 26.5-.7l.7 1.9zm3-24.6l-3.6 16.7-27.1.1-26.9.1-.9-1.6 4.2-16.6 27.3.1c9.5 0 26.4-.7 26.4-.7l.6 1.9z"/><path clip-path="url(#j)" fill="#D19A2A" d="M801.1 354.8c0-7 3.8-10.8 9-10.8 3.7 0 6 2.3 6 6.9 0 7.1-3.8 10.9-8.9 10.9-3.8-.1-6.1-2.4-6.1-7m29.2-9.1l-13 20-9.1 14.3-4.5-1.7-.3-.8s5.3-7.7 9.3-14l12.8-20.5 4.2 1.5.6 1.2zm-18.2 7c0-1.4-1.1-2-3.5-2-2.6 0-3.6.7-3.6 2.3 0 1.3 1.1 2 3.5 2 2.6.1 3.6-.7 3.6-2.3m8.1 16.6c0-7 3.8-10.8 9-10.8 3.8 0 6 2.3 6 6.9 0 7.1-3.8 10.9-8.9 10.9-3.7-.1-6.1-2.4-6.1-7m11-2c0-1.4-1.1-2-3.5-2-2.6 0-3.6.7-3.6 2.3 0 1.3 1.1 2 3.5 2 2.7 0 3.6-.8 3.6-2.3"/><path clip-path="url(#j)" fill="none" stroke="#D19A2A" stroke-width=".5" stroke-miterlimit="10" d="M182.2 174.1l3 6c-.5 5.7-28.5 30.7-34.2 30.7-23.2 0-32.2-10.2-29.5-32.7l7.2-57.2c1-8.7-.3-11-6-11-6 0-7 1-8.5 9.2l-10 77.7c-1.5 12-2.5 23.7-2.5 23.7l-3.3 3.7-42.2 7-2-4.2c1.8-4 16-96.6 16-107.1 0-5.2-1.2-6.7-4-6.7-6.2 0-18.2 8.2-18.2 8.2l-2.5.3-6.7-17.2.7-2.2L64 83.6l4-1.7c27.5 0 68.7 2.5 82.9 2.5 20.7 0 50.9-2.5 50.9-2.5l1.2 1.7-6.7 24-2 1.7c-15.7 0-18.7 2-22 13.7-1.5 5.7-6.2 31.2-6.2 39.5.1 9.6 3.9 11.6 16.1 11.6z"/><path clip-path="url(#j)" fill="none" stroke="#D19A2A" stroke-linecap="round" stroke-miterlimit="10" stroke-dasharray="0,6" d="M191.1 145.1l117.3-49.4"/><path clip-path="url(#j)" fill="none" stroke="#D19A2A" stroke-width=".5" stroke-miterlimit="10" d="M712.7 402.7l1 2.2-3.3 13-44.6.1-1-2.3 2.8-12.9h26.3l18.8-.1zm5.7-41.9l-2.3 18.8-22.2 9.5c-9.6 4.1-18.7 8.6-18.7 8.6l-2.1-1.3-2.6-12.9s11.4-4.4 20.6-8.3l10.8-4.8.1-1-10.9-6-16.1-7.9-.9-2.6 8.2-11.3 15.5 7.7 3.3 1.6c5.4 2.7 10.4 5.4 16.5 8.1l.8 1.8zm-5.7 41.9v-.1.1zM163.5 588.6l-122.7-1.8-24.5 3-8-20.1L75 496.8l-41.9-87.6 6.8-13h13.9c26.8 0 53.4.3 80.2.3l52.2-3.2 3 3.2c-2.7 25.1-5.6 65.2-5.6 65.2l-36 5c2.1-23-3.2-32.5-21.5-35.7l-25.7-4.1 27.2 58.7-1.5 12.7-54.6 59.3 44.3-6.5c17.1-2.1 25.4-12.4 31-36.9l37.8-2.7S174 554.6 170.4 582l-6.9 6.6z"/><path clip-path="url(#j)" fill="#D19A2A" d="M40.2 287.4c1.5-2.5 4.2-6.3 8.6-6.3s6.7 4 6.7 8.2c0 7.1-5 12.2-10.1 12.2-4.2 0-6.3-2.9-7.7-6.4-1.4 2.5-4 6.4-8.5 6.4-4.4 0-6.8-4-6.8-8.2 0-7.1 5.1-12.2 10.2-12.2 3.8 0 6.1 2.8 7.6 6.3m-3.3 5.6c-1.4-4-2.8-7.9-6.3-7.9-2.7 0-5.4 2.6-5.4 6.6 0 3.1 1.8 5.4 5.2 5.4 3.4.1 5.4-2.3 6.5-4.1m4-3.5c1.4 4.2 2.9 8 6.3 8 2.7 0 5.4-2.6 5.4-6.6 0-3-1.8-5.4-5.3-5.4-3.3 0-5.3 2.3-6.4 4M626.1 510.3c0-5.3 3.4-8.7 8.4-8.7 3.9 0 6 2.2 6 5.9 0 5.2-3.4 8.6-8.4 8.6-3.9.1-6-2-6-5.8m2.8-22.1l.4-1.1 7.2-3.4c2.6-1.3 3.9-2.9 3.9-4.5 0-3.2-3.7-5.1-10.8-5.4l-.9-1.3 4-8.6 1.3-.7c11.6.3 19.7 5.6 19.7 12.5 0 5.1-3 8.7-13.4 15l-.2.4-.1 4.9-.7 1-8.8 1.5-1-.6-.6-9.7z"/></g></svg>
